-----BEGIN PGP SIGNATURE-----

iQIzBAABCgAdFiEERlb+/I7Bx7F/6SNW17o2cBvsVosFAmhacKIACgkQ17o2cBvs
Vov6cA//QYzqG7gcPQsbLLibDkKgacA+Vr1gCnxyh7YxkIxeta91SXtCi/mItpQu
p2J86j2D/HghTDdzm2PQMIiWUEkwwO814Y73wJ0oSmQrA2yYwajQO/IKn3cq9HDl
h7XCP2iogZW5nJFoMMODD81/P40QgAqsEbtSX36CdzsR/cyP6v93eM4CJUQrOQWM
AjNbFShjeuePcob0yqihWs9xMgBKf32G5hWi+vh3SClfPIxH4z68C2bN4mIt3twi
5Rip74Wy+7ykynYeB1nxFVeUhMh/F1AxPMlZ7YMOWxIwq7kJqBFIbf/dM/7Jn+ZR
3J/qakXJ04uG9DiWGQcgI5aZmcGoY8xoojyy1zTSVRAQXTPNHT+yXwJIZ2HgPlac
0266ykG8VJAeVBT425qrTDNUsc/nT0LMjF+cZqJHkW6A74bbulmSwuZ82dldg2jC
dSpHK6aW1pen7QUp2ov9JjUi3ANVwNP1XhP621jOigfR96JecZoRjGqI/DbC/kzx
q3A5OkW+8V2n1CiL5LbbSyURp0cCkJokVogsW5YM2SDOBZCH3Xhpe8OQJnwLdoVW
mq3q/W7OXFkCNEvS3huGURNj4GEKuzfQV/hZpyDbgg3rxULbkq/J6o86RJR1OoVh
fMDra+bJGy9tM8dIvesxBfnLvHSjjyI51bB5z0+TxObnmozlhwM=
=GISm
-----END PGP SIGNATURE-----
